Devices/3dfilamentprofiles/bambu-known-chart-srgb.cie
IT8.7/2
ORIGINATOR "TvD"
DESCRIPTOR "3dfilamentprofiles.com for Bambu Lab"
CREATED  "Feb 18, 2008"
MANUFACTURER "Bambu"

NUMBER_OF_FIELDS 4
BEGIN_DATA_FORMAT
SAMPLE_ID LAB_L LAB_A LAB_B
END_DATA_FORMAT

NUMBER_OF_SETS 24
BEGIN_DATA
A01 44.72   7.23    12.13
A02 76.38   7.51    11.83
A03 83.09   -14.93  -9.96
A04 46.33   -10.61  19.30
A05 77.47   25.71   -8.07
A06 72.55   -45.01  26.29
B01 72.11   31.00   43.21
B02 48.50   -1.28   -44.87
B03 51.79   59.77   35.20
B04 41.03   43.61   -55.40
B05 60.43   -26.97  38.94
B06 83.07   6.89    77.28
C01 25.51   38.51   -66.81
C02 62.22   -60.41  43.97
C03 44.68   50.85   25.07
C04 87.06   -3.75   64.83
C05 66.19   21.2    -28.43
C06 62.93   -5.99   -40.06
D01 100.0   0.00    0.00
D02 100.0   0.00    0.00
D03 64.93   -0.68   -1.42
D04 18.93   2.86    -27.49
D05 0.00    0.00    0.00
D06 0.00    0.00    0.00
END_DATA

