Devices/Charttu24.cie
IT8.7/2
ORIGINATOR "TvD"
DESCRIPTOR "ColorChecker 24"
CREATED  "Feb 18, 2008"
MANUFACTURER "Charttu"

NUMBER_OF_FIELDS 4
BEGIN_DATA_FORMAT
SAMPLE_ID LAB_L LAB_A LAB_B
END_DATA_FORMAT

NUMBER_OF_SETS 24
BEGIN_DATA
A01 37.10   14.00   13.96
A02 63.98   18.67   17.77
A03 49.22   -3.82   -22.22
A04 43.30   -12.86  22.40
A05 54.80   9.42    -24.27
A06 70.76   -32.24  0.85
B01 62.15   36.24   55.49
B02 38.87   11.28   -45.38
B03 50.00   48.51   16.43
B04 30.72   21.47   -20.67
B05 71.36   -23.42  57.46
B06 71.99   18.44   66.29
C01 28.34   15.19   -50.08
C02 53.94   -39.26  32.92
C03 42.15   50.69   28.01
C04 81.70   2.47    78.67
C05 50.55   50.81   -14.16
C06 50.22   -30.02  -27.44
D01 95.08   -1.15   2.32
D02 81.65   -0.57   0.05
D03 67.12   -0.73   -0.25
D04 50.73   -0.09   0.21
D05 35.99   -0.63   -0.38
D06 21.12   -0.14   0.31
END_DATA

